X:3203
T:College hornpipe, The
T:Sailor's Hornpipe, The
R:Hornpipe
O:England
O:Scotland
M:4/4
K:Bb
BA|B2B,2 B,2FE|DFB2 BdcB|c2C2 C2cB|Acf2 f2ga|\
bagf gfed|edcB BAGF|
GBAc Bdce|d2[B2D2] [B2D2]::\
FE|\
DFBF DFBF|{^F}G2[E2G,2] [E2G,2]G=F|
=EGcG EGcG|A2F2 F2ed|\
e2g2 gfed|edcB BAGF|\
GBAc Bdce|d2[B2D2] [B2D2] :|


